packages/core/src/svgs/avi.svg

<svg width="24" height="24" viewBox="0 0 24 24" fill="none" xmlns="http://www.w3.org/2000/svg">
<g clip-path="url(#clip0_31_6406)">
<path d="M0 0H24V24H0V0Z" fill="#F0F3FA"/>
<path d="M12.0002 18.8574C15.7873 18.8574 18.8574 15.7873 18.8574 12.0002C18.8574 8.21311 15.7873 5.14307 12.0002 5.14307C8.21311 5.14307 5.14307 8.21311 5.14307 12.0002C5.14307 15.7873 8.21311 18.8574 12.0002 18.8574Z" fill="#5CBDE6"/>
<path d="M11.9998 17.987C15.3064 17.987 17.987 15.3064 17.987 11.9998C17.987 8.69323 15.3064 6.0127 11.9998 6.0127C8.69323 6.0127 6.0127 8.69323 6.0127 11.9998C6.0127 15.3064 8.69323 17.987 11.9998 17.987Z" fill="#7AC4EB"/>
<path d="M12.0001 16.9586C14.7386 16.9586 16.9586 14.7386 16.9586 12.0001C16.9586 9.26153 14.7386 7.0415 12.0001 7.0415C9.26153 7.0415 7.0415 9.26153 7.0415 12.0001C7.0415 14.7386 9.26153 16.9586 12.0001 16.9586Z" fill="#9BD8FB"/>
<path d="M11.3357 9.04721L8.72145 6.17578L7.96717 6.39007L7.59431 8.14721V10.8901H7.76574V11.5329H7.59431V13.6758L8.96574 14.8758V15.2572L7.09717 16.9072C8.51145 18.8444 10.8557 19.0072 12.7115 19.0072C14.1943 19.0072 15.42 18.2786 15.8486 17.9058L14.6829 16.6629H14.1V16.4401H14.7772C15.0643 16.3115 15.6343 16.0544 15.66 16.0201C15.6815 15.9815 16.0629 15.5572 16.2515 15.3472V14.5286C15.9921 14.2896 15.7433 14.0394 15.5057 13.7786C15.8029 13.3895 16.1235 13.0188 16.4657 12.6686V11.5544L15.6515 10.1958L16.08 7.2515L15.8872 6.93007H15.7243L15.2486 7.47864L13.5943 8.75578C13.2254 8.71944 12.855 8.70085 12.4843 8.70007C12 8.70007 11.5157 8.9315 11.3272 9.04721H11.3357Z" fill="black"/>
<path d="M9.79297 18.6641V15.8398H11.713L13.9715 16.9413L13.603 17.6784L13.8344 18.8013L12.0344 19.0756L9.79297 18.6641Z" fill="#928396"/>
<path d="M9.09433 15.3856L7.32861 17.1984L7.68861 17.5327L9.2529 16.0756L9.93004 15.9041H11.4086L13.5258 17.0013H14.6872L14.3443 16.7913L13.2172 16.277L11.9915 15.5999L10.5986 15.3856L9.56147 15.2441L9.09004 15.3856H9.09433Z" fill="#2D2220"/>
<path d="M8.25419 16.8L7.61133 17.49L7.93276 17.7128L8.37847 17.1214L9.15847 16.6414L9.79276 16.9628L10.247 16.7571L9.68133 15.8828L9.05561 16.1571L8.25419 16.8Z" fill="#744E03"/>
<path d="M9.79278 16.9202C9.55278 16.8045 9.07278 16.5687 9.04707 16.5645L8.34849 16.9502L7.91992 17.563L8.57135 18.1073V17.2073L9.35564 17.863V18.4545L9.79278 18.6216V16.9202Z" fill="#A16123"/>
<path d="M10.1573 17.1855L9.7373 16.7998V18.5655L10.153 18.3041V17.1898L10.1573 17.1855Z" fill="#FC9918"/>
<path d="M10.2129 16.7444V18.973L11.9786 19.1101L13.7057 18.8787L13.1572 17.3101L12.2315 16.6844L10.86 16.2173L10.2129 16.7444Z" fill="#C8C3CA"/>
<path d="M10.5 16.7358L11.1129 16.4058L12.7843 17.3615L13.6286 18.8186L12.2143 19.0929L10.5 18.8615V16.7358Z" fill="white"/>
<path d="M9.70703 14.803L10.3799 14.2459L11.3399 13.4487L12.2313 13.8516L15.3642 14.7302L15.6599 15.0473V15.4759H14.4085L13.3242 15.3044V15.4373L14.237 15.6087H15.8313L15.227 15.9944H12.227L10.4099 15.4373L9.70703 14.803Z" fill="#918495"/>
<path d="M10.363 13.4617L10.0459 13.9631L11.5459 13.8602V12.8745H10.9288V13.4617H10.3673H10.363Z" fill="#513206"/>
<path d="M11.4258 13.8727C11.5286 13.7527 11.7344 13.4913 11.7386 13.457L13.1315 13.3413L15.6944 14.3999V14.6485H14.7858L12.7286 14.3142L11.4301 13.8727H11.4258Z" fill="#9E6315"/>
<path d="M11.3141 11.5973L10.6841 10.9673L10.5684 11.4987L10.8684 12.0816H11.3141V11.5973Z" fill="#34343E"/>
<path d="M13.0371 12.1159L10.9199 11.0273L11.2285 10.6416C11.6228 10.8216 12.4671 11.1902 12.6685 11.2587C12.8699 11.3273 13.1828 11.8416 13.3114 12.0902L13.0371 12.1159Z" fill="#33323A"/>
<path d="M10.9712 10.8257L11.1555 10.6157L15.3126 11.0743L16.294 11.6572V12.12H15.9469L15.5055 11.6829H13.9883L13.2983 12.12L10.9712 10.8257Z" fill="#C1B6C7"/>
<path d="M11.0786 10.8171L11.1429 10.6714L15.9172 11.0228L16.2686 11.5757V11.9314L15.5829 11.52H13.7872L13.2558 11.8714L11.0786 10.8171Z" fill="#F8F8EC"/>
<path d="M7.77441 11.52V12.2786L9.44584 13.2086L9.2787 12.2786L8.22013 11.58L7.77441 11.52ZM7.79156 12.4886V13.3286L8.86727 14.1772L9.38156 13.38L7.79584 12.4886H7.79156Z" fill="#302128"/>
<path d="M11.1942 9.31738H11.5499L10.3799 10.916L10.7742 11.666L10.8856 12.5788L10.3799 12.9988L10.1442 12.9174L10.6071 11.966L9.61279 11.1945L11.1942 9.31738Z" fill="#37363C"/>
<path d="M7.95009 11.3657L8.3058 10.71L8.82866 10.9157L10.3072 12.0042L9.87866 12.9814L9.55723 13.2857L8.58866 12.6857L7.9458 11.3657H7.95009Z" fill="#323338"/>
<path d="M8.0698 6.61299L8.4898 6.31299L10.3455 9.55299L9.28694 10.8387L8.8198 10.5901H8.34837L7.72266 10.933V8.15585L8.06551 6.61299H8.0698Z" fill="#2E2128"/>
<path d="M8.56731 10.894H8.88017L10.3373 12.0855V12.2655L9.92588 13.0926H9.58303L8.35303 11.8969V11.134L8.56731 10.894Z" fill="#BAAFC0"/>
<path d="M10.6502 9.44559L8.24163 6.51416L7.98877 7.73559H8.14734V8.80702H7.98877V10.1099L9.21877 10.7099H9.68591L10.6502 9.44559Z" fill="#FEFFF9"/>
<path d="M8.84158 8.32287L8.36158 7.69287L8.16016 8.78573V10.1872L8.78587 10.4872H9.00016V10.2857H9.36444V9.34287H9.51444V9.75859H9.74587V9.41573L9.15444 8.32287H8.84587H8.84158Z" fill="#C3BDC7"/>
<path d="M8.37012 7.15723V7.7058L8.84155 8.32294H8.95726V8.05723L8.53726 7.15723H8.37012ZM8.57155 8.5458L8.76012 9.54008H9.0044L8.76012 8.5458H8.57155Z" fill="#2E2128"/>
<path d="M10.6845 9.36002L8.35303 6.44145L8.51588 6.30859L10.873 9.03859L10.6845 9.36002Z" fill="#FE9923"/>
<path d="M10.0245 8.05695L8.5459 6.33838H8.7259L10.1616 7.89838L10.0245 8.05695Z" fill="#FBFFF1"/>
<path d="M11.2288 9.0858L10.1616 7.90723L9.97736 8.05723L10.8645 9.01723L9.63878 10.7015H9.24021L8.93164 10.5772V10.8687L9.50593 11.1344L11.2245 9.0858H11.2288Z" fill="#A25F1B"/>
<path d="M11.5073 9.69017L12.6858 9.10303H11.9016L10.9801 9.8316L9.94727 10.8259V11.2502L10.5387 11.713V12.493L10.2773 12.763V13.0759H10.6844L11.023 12.4587V11.7902L10.7487 11.413V10.6802L11.5073 9.69446V9.69017Z" fill="#BAAFC0"/>
<path d="M11.7428 9.30857L12.6428 9.12428L12.7028 8.96143H12.0599L11.4342 9.26571L10.2856 10.4486L10.4228 10.5643L11.7385 9.30857H11.7428Z" fill="#FAFFF9"/>
<path d="M8.52881 11.7214L8.80738 11.2886L9.83595 12.1286L9.43309 12.4757L8.53309 11.7214H8.52881Z" fill="#6B6A72"/>
<path d="M8.75586 11.1127V10.8984H8.96586L10.3501 11.9184V12.1199L9.81443 12.2699L8.96586 11.417L8.75586 11.1127Z" fill="#FBFBFB"/>
<path d="M11.7084 9.88721L11.0698 10.7144L13.1741 11.7001L13.577 11.5201L11.7084 9.89149V9.88721Z" fill="#353338"/>
<path d="M12.5142 9.2998L11.687 9.90838L13.5727 11.5241L13.7442 11.4812V11.1512L12.5613 9.88695L12.5184 9.2998H12.5142Z" fill="#1F3E5B"/>
<path d="M12.5312 9.90836L12.4712 9.35122L12.7798 9.10693H14.3783L15.8998 10.7355V11.4984H15.6555V11.3098H13.6969V11.1212L12.5312 9.90836Z" fill="#929EB6"/>
<path d="M12.4969 9.69842L12.4712 9.34699L12.7798 9.08984H13.5212L14.5369 11.3184H14.1769L12.4969 9.69842Z" fill="#5B84BA"/>
<path d="M15.4842 10.7741L13.8428 9.10693H14.5028L15.7242 10.4355V11.1212H15.4842V10.7741Z" fill="#F3F7E8"/>
<path d="M14.3188 8.93554H13.7402V8.75126L14.8931 8.1084L14.3188 8.93554Z" fill="#A16123"/>
<path d="M14.6787 8.93123H14.293L14.8373 8.13837L15.283 7.72266V8.06551L14.6787 8.93123Z" fill="#FE9C15"/>
<path d="M14.9313 9.42429L14.6313 9.12429L15.8999 7.53857L14.9313 9.42429Z" fill="#FBF9FC"/>
<path d="M15.2615 9.77154L15.9001 7.54297L14.9272 9.40297L15.2615 9.77154Z" fill="#C7BFCA"/>
<path d="M15.8873 7.06738L15.2744 7.69738L15.4458 7.74881L15.8573 7.37167L15.8873 7.06738Z" fill="#FFFBFF"/>
<path d="M11.7216 13.6288V12.506L11.9701 12.2788H12.9301V12.506H13.4916V12.2788H13.8987V13.2388L13.2859 13.8774H12.2016L11.7173 13.6288H11.7216Z" fill="#46643E"/>
<path d="M13.2255 12.506H12.9298V12.2788H12.364L13.8298 13.3074L13.8983 13.2388V13.0588L13.2255 12.5017V12.506ZM13.5726 13.5774L12.0726 12.2788H11.9698L11.7212 12.506V12.6002L13.4355 13.7274L13.5726 13.5817V13.5774Z" fill="#738471"/>
<path d="M14.52 12.9902V12.0859H15.9V13.0374L15.6686 13.4659H15.1414L14.52 12.9945V12.9902Z" fill="#527147"/>
<path d="M14.52 12.373L15.45 13.4658H15.6686L15.9 13.033V12.9173L15.0686 12.0815H14.52V12.373Z" fill="#738471"/>
<path d="M14.357 13.0372L14.1856 12.4629L14.0313 13.2472L13.3027 14.0529H14.3999C14.4342 14.0529 14.9956 13.9243 15.2699 13.86L15.167 13.6372L14.357 13.0372Z" fill="#745409"/>
<path d="M11.3615 13.1742L10.9757 12.8442L10.9243 13.4914H11.3615V13.1742Z" fill="#725102"/>
<path d="M11.52 11.9229V12.2657H11.7257V12.0729H11.9786V11.9229H11.52Z" fill="#717D6F"/>
<path d="M10.2431 13.8257L9.27881 14.2457C9.42024 14.4343 9.70738 14.8157 9.71167 14.8414C9.71595 14.8671 10.0674 14.1771 10.2431 13.8257Z" fill="#454442"/>
<path d="M10.5388 14.4771H10.0674L10.3074 13.8257H10.9374V14.2885H10.5388V14.4771Z" fill="#5D645C"/>
<path d="M10.303 13.6885L9.7373 14.7813H10.1187V14.2542H10.303V13.8685H10.8944V14.0742H11.3616V13.8385H10.9502V13.6885H10.3073H10.303Z" fill="#393A3F"/>
<path d="M15.2316 13.8345L14.0659 14.0573L14.3231 14.4559H15.7373L15.2316 13.8345Z" fill="#FF9911"/>
<path d="M12.8185 14.3184H10.6757L10.5171 14.7684L10.8899 15.0512L12.1757 15.2655L14.1257 15.4669H14.5885L15.5099 14.9698V14.6826H14.9271L12.8185 14.3184Z" fill="white"/>
<path d="M15.4672 13.8856H15.27L15.6986 14.4599H15.9129V14.2799L15.4672 13.8813V13.8856Z" fill="#F5FFF9"/>
<path d="M15.6772 14.863V14.6787H16.1058V14.863H15.6772Z" fill="#FAF5FC"/>
<path d="M13.5342 17.73L13.7228 18.6471H13.9199V18.3385L14.5028 17.8071V18.39L15.5613 17.8928L14.9613 17.4214H13.6756L13.5342 17.73Z" fill="#FD9C0F"/>
<path d="M14.653 16.9888H13.7959L13.603 17.4388H14.9745L14.653 16.9888Z" fill="#A56118"/>
<path d="M14.7943 16.9971H14.6357L14.9529 17.4385L15.5357 17.8971L15.6643 17.8199L14.7943 16.9971Z" fill="#F9FAF2"/>
<path fill-rule="evenodd" clip-rule="evenodd" d="M12.0001 19.2858C13.9324 19.2858 15.7855 18.5182 17.1518 17.1518C18.5182 15.7855 19.2858 13.9324 19.2858 12.0001C19.2858 10.0678 18.5182 8.21463 17.1518 6.84829C15.7855 5.48196 13.9324 4.71436 12.0001 4.71436C10.0678 4.71436 8.21463 5.48196 6.84829 6.84829C5.48196 8.21463 4.71436 10.0678 4.71436 12.0001C4.71436 13.9324 5.48196 15.7855 6.84829 17.1518C8.21463 18.5182 10.0678 19.2858 12.0001 19.2858ZM12.0001 18.8572C13.8187 18.8572 15.5628 18.1348 16.8488 16.8488C18.1348 15.5628 18.8572 13.8187 18.8572 12.0001C18.8572 10.1814 18.1348 8.4373 16.8488 7.15134C15.5628 5.86537 13.8187 5.14293 12.0001 5.14293C10.1814 5.14293 8.4373 5.86537 7.15134 7.15134C5.86537 8.4373 5.14293 10.1814 5.14293 12.0001C5.14293 13.8187 5.86537 15.5628 7.15134 16.8488C8.4373 18.1348 10.1814 18.8572 12.0001 18.8572Z" fill="#3781B2"/>
</g>
<defs>
<clipPath id="clip0_31_6406">
<rect width="24" height="24" fill="white"/>
</clipPath>
</defs>
</svg>

<svg xmlns="http://www.w3.org/2000/svg" width="24" height="24" fill="none" viewBox="0 0 24 24"><g clip-path="url(#a)"><path fill="#F0F3FA" d="M0 0h24v24H0z"/><path fill="#5CBDE6" d="M12 18.857a6.857 6.857 0 1 0 0-13.714 6.857 6.857 0 0 0 0 13.714"/><path fill="#7AC4EB" d="M12 17.987a5.987 5.987 0 1 0 0-11.975 5.987 5.987 0 0 0 0 11.975"/><path fill="#9BD8FB" d="M12 16.959a4.959 4.959 0 1 0 0-9.917 4.959 4.959 0 0 0 0 9.917"/><path fill="#000" d="M11.336 9.047 8.72 6.176l-.754.214-.373 1.757v2.743h.172v.643h-.172v2.143l1.372 1.2v.381l-1.869 1.65c1.414 1.937 3.759 2.1 5.614 2.1 1.483 0 2.709-.728 3.138-1.101l-1.166-1.243H14.1v-.223h.677c.287-.129.857-.386.883-.42.021-.038.403-.463.591-.673v-.818q-.389-.36-.745-.75.446-.585.96-1.11v-1.115l-.815-1.358.429-2.944-.193-.322h-.163l-.475.549-1.655 1.277a12 12 0 0 0-1.11-.056c-.484 0-.968.232-1.157.347z"/><path fill="#928396" d="M9.793 18.664V15.84h1.92l2.259 1.101-.369.737.231 1.123-1.8.275z"/><path fill="#2D2220" d="M9.094 15.386 7.33 17.198l.36.335 1.564-1.457.677-.172h1.479l2.117 1.097h1.161l-.343-.21-1.127-.514-1.226-.677-1.392-.214-1.038-.142-.471.142z"/><path fill="#744E03" d="m8.254 16.8-.643.69.322.223.445-.592.78-.48.635.322.454-.206-.566-.874-.625.274z"/><path fill="#A16123" d="M9.793 16.92c-.24-.116-.72-.351-.746-.356l-.699.386-.428.613.651.544v-.9l.785.656v.591l.437.168z"/><path fill="#FC9918" d="m10.157 17.186-.42-.386v1.765l.416-.26V17.19z"/><path fill="#C8C3CA" d="M10.213 16.744v2.229l1.766.137 1.727-.231-.549-1.569-.925-.626-1.372-.467z"/><path fill="#fff" d="m10.5 16.736.613-.33 1.671.956.845 1.457-1.415.274-1.714-.232z"/><path fill="#918495" d="m9.707 14.803.673-.557.96-.797.891.403 3.133.878.296.317v.429h-1.251l-1.085-.172v.133l.913.172h1.594l-.604.385h-3l-1.817-.557z"/><path fill="#513206" d="m10.363 13.462-.317.501 1.5-.103v-.985h-.617v.587h-.566"/><path fill="#9E6315" d="M11.426 13.873c.103-.12.308-.382.313-.416l1.393-.116 2.562 1.059v.248h-.908l-2.057-.334-1.299-.441z"/><path fill="#34343E" d="m11.314 11.597-.63-.63-.116.532.3.583h.446z"/><path fill="#33323A" d="m13.037 12.116-2.117-1.089.309-.385c.394.18 1.238.548 1.44.617.2.068.514.583.642.831z"/><path fill="#C1B6C7" d="m10.971 10.826.184-.21 4.158.458.981.583v.463h-.347l-.441-.437h-1.518l-.69.437z"/><path fill="#F8F8EC" d="m11.079 10.817.064-.146 4.774.352.352.553v.355l-.686-.411h-1.796l-.531.351z"/><path fill="#302128" d="M7.774 11.52v.759l1.672.93-.167-.93-1.059-.699zm.018.969v.84l1.075.848.515-.797-1.586-.891z"/><path fill="#37363C" d="M11.194 9.317h.356l-1.17 1.599.394.75.112.913-.506.42-.236-.082.463-.951-.994-.771z"/><path fill="#323338" d="m7.95 11.366.356-.656.523.206 1.478 1.088-.428.977-.322.305-.968-.6-.643-1.32z"/><path fill="#2E2128" d="m8.07 6.613.42-.3 1.855 3.24-1.058 1.286-.467-.249h-.472l-.625.343V8.156l.343-1.543z"/><path fill="#BAAFC0" d="M8.567 10.894h.313l1.457 1.191v.18l-.411.828h-.343l-1.23-1.196v-.763z"/><path fill="#FEFFF9" d="M10.65 9.446 8.242 6.514l-.253 1.222h.158v1.071H7.99v1.303l1.23.6h.467z"/><path fill="#C3BDC7" d="m8.842 8.323-.48-.63-.202 1.093v1.401l.626.3H9v-.201h.364v-.943h.15v.416h.232v-.343l-.592-1.093h-.312"/><path fill="#2E2128" d="M8.37 7.157v.549l.472.617h.115v-.266l-.42-.9zm.202 1.389.188.994h.244l-.244-.994z"/><path fill="#FE9923" d="M10.685 9.36 8.353 6.441l.163-.132 2.357 2.73z"/><path fill="#FBFFF1" d="m10.025 8.057-1.48-1.719h.18l1.437 1.56z"/><path fill="#A25F1B" d="m11.229 9.086-1.067-1.179-.185.15.887.96-1.225 1.685H9.24l-.308-.125v.292l.574.265 1.719-2.048z"/><path fill="#BAAFC0" d="m11.507 9.69 1.179-.587h-.784l-.922.729-1.033.994v.424l.592.463v.78l-.262.27v.313h.407l.339-.617v-.669l-.274-.377v-.733l.758-.986z"/><path fill="#FAFFF9" d="m11.743 9.309.9-.185.06-.163h-.643l-.626.305-1.148 1.183.137.115 1.316-1.255z"/><path fill="#6B6A72" d="m8.529 11.721.278-.432 1.029.84-.403.347-.9-.755z"/><path fill="#FBFBFB" d="M8.756 11.113v-.215h.21l1.384 1.02v.202l-.536.15-.848-.853z"/><path fill="#353338" d="m11.708 9.887-.638.827 2.104.986.403-.18-1.869-1.629z"/><path fill="#1F3E5B" d="m12.514 9.3-.827.608 1.886 1.616.171-.043v-.33l-1.183-1.264-.043-.587z"/><path fill="#929EB6" d="m12.531 9.908-.06-.557.309-.244h1.598l1.522 1.629v.762h-.245v-.188h-1.958v-.189z"/><path fill="#5B84BA" d="m12.497 9.698-.026-.351.309-.257h.741l1.016 2.228h-.36z"/><path fill="#F3F7E8" d="m15.484 10.774-1.641-1.667h.66l1.221 1.329v.685h-.24z"/><path fill="#A16123" d="M14.319 8.936h-.579V8.75l1.153-.643z"/><path fill="#FE9C15" d="M14.679 8.931h-.386l.544-.793.446-.415v.343z"/><path fill="#FBF9FC" d="m14.931 9.424-.3-.3L15.9 7.54z"/><path fill="#C7BFCA" d="m15.262 9.772.638-2.229-.973 1.86z"/><path fill="#FFFBFF" d="m15.887 7.067-.613.63.172.052.411-.377z"/><path fill="#46643E" d="M11.722 13.629v-1.123l.248-.227h.96v.227h.562v-.227h.407v.96l-.613.638h-1.084l-.485-.248z"/><path fill="#738471" d="M13.226 12.506h-.296v-.227h-.566l1.466 1.028.068-.068v-.18l-.672-.557zm.347 1.071-1.5-1.298h-.103l-.249.227v.094l1.714 1.127.138-.145z"/><path fill="#527147" d="M14.52 12.99v-.904h1.38v.951l-.231.429h-.528l-.621-.471z"/><path fill="#738471" d="m14.52 12.373.93 1.093h.219l.231-.433v-.116l-.831-.835h-.549z"/><path fill="#745409" d="m14.357 13.037-.171-.574-.155.784-.728.806H14.4c.034 0 .596-.129.87-.193l-.103-.223z"/><path fill="#725102" d="m11.362 13.174-.386-.33-.052.647h.438z"/><path fill="#717D6F" d="M11.52 11.923v.343h.206v-.193h.253v-.15z"/><path fill="#454442" d="m10.243 13.826-.964.42c.141.188.428.57.433.595.004.026.355-.664.531-1.015"/><path fill="#5D645C" d="M10.539 14.477h-.472l.24-.651h.63v.463h-.398z"/><path fill="#393A3F" d="m10.303 13.689-.566 1.092h.382v-.527h.184v-.386h.591v.206h.468v-.236h-.412v-.15h-.647"/><path fill="#F91" d="m15.232 13.835-1.166.222.257.399h1.414z"/><path fill="#fff" d="M12.819 14.318h-2.143l-.159.45.373.283 1.286.214 1.95.202h.463l.92-.497v-.287h-.582z"/><path fill="#F5FFF9" d="M15.467 13.886h-.197l.429.574h.214v-.18l-.446-.399z"/><path fill="#FAF5FC" d="M15.677 14.863v-.184h.429v.184z"/><path fill="#FD9C0F" d="m13.534 17.73.189.917h.197v-.308l.583-.532v.583l1.058-.497-.6-.472h-1.285z"/><path fill="#A56118" d="M14.653 16.989h-.857l-.193.45h1.372z"/><path fill="#F9FAF2" d="M14.794 16.997h-.158l.317.442.583.458.128-.077z"/><path fill="#3781B2" fill-rule="evenodd" d="M12 19.286a7.285 7.285 0 1 0 0-14.57 7.285 7.285 0 0 0 0 14.57m0-.429a6.857 6.857 0 1 0 0-13.714 6.857 6.857 0 0 0 0 13.714" clip-rule="evenodd"/></g><defs><clipPath id="a"><path fill="#fff" d="M0 0h24v24H0z"/></clipPath></defs></svg>
